X: 4840
T: Boys On The Hilltop, The
R: reel
M: 4/4
K: Adorian
||A3c (3BdB AG|EGGF G2AG|E2 (3AAA BABd|egdB ~B2dB|
A3c (3BdB AG|EGGF G2AB|c2ec (3BBB AB|dBGA BAA2||
A2Bd egdB|GBdB defg|a2ed egdB|GBdA BAA2|
a2ed egdB|GBdB defg|(3agf (3gfe fdef|gbaf gedB||

